X:1
T:Title
%%score { ( 1 4 ) | ( 2 3 ) }
L:1/8
M:3/4
K:Ab
V:1 treble nm="Grand Piano"
V:4 treble 
V:2 bass 
V:3 bass 
V:1
 z2 z2[Q:1/4=100] E2 | [Ec]c d3 c | [DB]c [CA]3 c | [Ge]3 B cd | [Ac]4 E2 | [Ec]c c3 c | %6
[M:13/16] [_Ge][Ge][Fd]3/2F=GA |[M:3/4] c4 z2 |[M:2/4] [CA]4 |[M:1/4] [_GA]2 |[M:3/4] z2 d4 | %11
 [Ec][CA] [Ec]3 c | z2 e4 | c[=DB] B3 E | cc c3 [_Ge] |[M:13/16] [Fe][Fd]F3/2FG[FA] | %16
[M:3/4] c4 z2 |[M:2/4] [CA]4 |] %18
V:2
 z2 z2 C2 | z[K:treble] E F3 E | z E A,,3 E | z2 z[K:treble] G AB | [A,,E,]4 C2 | z E E3 E | %6
[M:13/16] [C,A,]-<[C,A,][D,A,]3/2 z/ z/ z F |[M:3/4] z E E2 E,,2 |[M:2/4] [A,,E,]4 | %9
[M:1/4] [A,C]2 |[M:3/4] [D,D][D,A,] [D,A,][D,A,] [D,A,][D,A,] | %11
 [A,,A,][A,,A,] [A,,A,]3[K:treble] [A,E] | [A,CA][B,DG] [CEA][B,D][K:bass] [A,C][A,E] | %13
 [F,A,=D][B,,A,] [E,G,E]3 [E,G,] | [A,E][A,E] [A,E]3 [C,A,] | %15
[M:13/16] [D,A,][D,A,][D,A,D]3/2 z/ z/ z [D,A,] |[M:3/4] [E,A,E][E,A,] [E,A,]2 [E,G,D]2 | %17
[M:2/4] [A,,A,]4 |] %18
V:3
 x6 | A,,6[K:treble] | E,6 | [E,,E,]6[K:treble] | x6 | A,,6 |[M:13/16] x13/2 |[M:3/4] E,6 | %8
[M:2/4] x4 |[M:1/4] x2 |[M:3/4] x6 | x5[K:treble] x | x4[K:bass] x2 | x6 | x6 |[M:13/16] x13/2 | %16
[M:3/4] x6 |[M:2/4] x4 |] %18
V:4
 x6 | x6 | x6 | x6 | x6 | x6 |[M:13/16] x13/2 |[M:3/4] .E2 z2 [DB]2 |[M:2/4] x4 |[M:1/4] x2 | %10
[M:3/4] [FA][DF] FF F[Fd] | x6 | ee z G Ac | x6 | x6 |[M:13/16] x13/2 |[M:3/4] z E E2 B2 | %17
[M:2/4] x4 |] %18

